X:1
T:Julesalme
T:Julesalme
T:Af Højheden oprunden er
T:Tysk melodi fra 1599 arr. Joh. D. Behrens
T:Ph. Nicolai
C:Tysk melodi fra 1599 arr. Joh. D. Behrens
Z:Ph. Nicolai
%%score [ 1 2 3 4 ]
L:1/8
Q:1/4=122
M:2/2
K:G
V:1 treble-8 nm="T1"
V:2 treble-8 nm="T2"
V:3 bass nm="B1"
V:4 bass nm="B2"
V:1
!mf!"^Andante con moto" G4 | d4 B4 | G4 d4 | e2 e2 d4 | z2!<(! d2 e2 f2!<)! |!f! g4 f4 | %6
w: 1.Af|Høj- he-|den op-|run- den er|en Mor- gen-|stjer- ne|
w: du|Ja- kobs-|stam- mens|fri- ske Skud,|du Da- vids|Søn, min|
w: 2.Du|lil- le|Barn, liv-|sa- lig skjøn,|Gud Fa- ders|og Ma-|
w: du|Lil- je|i mit|Hjer- te- rum,|dit Trø- stens|E- van-|
[M:3/2] e2!>(! e2 d4!>)! z2!mf! B2 |[M:6/4] e4 d2 c4 B2 |[M:2/2] A4 G4 :|!mf! d4 B4 | d4 B4 | %11
w: klar og skjær, af|Sand- hed og af|Naa- de;|1.Lif- lig,|ven- lig,|
w: Her- re prud, mig|fry- der o- ver-|maa- de!|2.Kjæ- re|Her- re,|
w: ri- æ Søn, hil|dig høj- baar- ne|Kon- ning;|||
w: ge- li- um er|sødt som Melk og|Hon- ning!|||
 c2 B2 A2 B2 | c2 B2 A2 B2 | c2 B2 A2 G2 |!f! g4 f4 |[M:3/2] e4 d4 c2 B2 | A4 !fermata!G8 |] %17
w: høj og præg- tig,|stor og mæg- tig,|rig paa Ga- ver!|Liv og|Lys ved dig jeg|ha- ver.|
w: Him- lens Man- na!|Ho- si- an- na!|Dig til Æ- re|glad i|Aan- den vil jeg|væ- re.|
w: ||||||
w: ||||||
V:2
!mf! G4 | A4 B4 | G4 G4 | c2 c2 B4 | z2!<(! A2 ^c2 d2!<)! |!f! e4 d4 | %6
w: 1.Af|Høj- he-|den op-|run- den er|en Mor- gen-|stjer- ne|
w: du|Ja- kobs-|stam- mens|fri- ske Skud,|du Da- vids|Søn, min|
w: 2.Du|lil- le|Barn, liv-|sa- lig skjøn,|Gud Fa- ders|og Ma-|
w: du|Lil- je|i mit|Hjer- te- rum,|dit Trø- stens|E- van-|
[M:3/2] d2!>(! ^c2 A4!>)! z2!mf! B2 |[M:6/4] c4 B2 A4 G2 |[M:2/2] (G2 F2) G4 :|!mf! F4 G4 | A4 G4 | %11
w: klar og skjær, af|Sand- hed og af|Naa- * de;|1.Lif- lig,|ven- lig,|
w: Her- re prud, mig|fry- der o- ver-|maa- * de!|2.Kjæ- re|Her- re,|
w: ri- æ Søn, hil|dig høj- baar- ne|Kon- * ning;|||
w: ge- li- um er|sødt som Melk og|Hon- * ning!|||
 G2 G2 F2 G2 | A2 G2 G2 G2 | F2 G2 A2 G2 |!f! B4 d4 |[M:3/2] c4 B4 A2 G2 | (G2 F2) !fermata!D8 |] %17
w: høj og præg- tig,|stor og mæg- tig,|rig paa Ga- ver!|Liv og|Lys ved dig jeg|ha- * ver.|
w: Him- lens Man- na!|Ho- si- an- na!|Dig til Æ- re|glad i|Aan- den vil jeg|væ- * re.|
w: ||||||
w: ||||||
V:3
!mf! G,4 | F,4 G,4 | E,4 G,4 | G,2 G,2 G,4 | z2!<(! A,2 A,2 A,2!<)! |!f! A,4 A,4 | %6
w: 1.Af|Høj- he-|den op-|run- den er|en Mor- gen-|stjer- ne|
w: du|Ja- kobs-|stam- mens|fri- ske Skud,|du Da- vids|Søn, min|
w: 2.Du|lil- le|Barn, liv-|sa- lig skjøn,|Gud Fa- ders|og Ma-|
w: du|Lil- je|i mit|Hjer- te- rum,|dit Trø- stens|E- van-|
[M:3/2] B,2!>(! A,2 F,4!>)! z2!mf! G,2 |[M:6/4] G,4 G,2 E,4 D,2 |[M:2/2] (E,2 D,2) G,4 :| %9
w: klar og skjær, af|Sand- hed og af|Naa- * de;|
w: Her- re prud, mig|fry- der o- ver-|maa- * de!|
w: ri- æ Søn, hil|dig høj- baar- ne|Kon- * ning;|
w: ge- li- um er|sødt som Melk og|Hon- * ning!|
!mf! A,4 G,4 | F,4 G,4 | G,2 G,2 D,2 D,2 | E,2 E,2 E,2 D,2 | D,2 D,2 F,2 G,2 |!f! G,4 B,4 | %15
w: 1.Lif- lig,|ven- lig,|høj og præg- tig,|stor og mæg- tig,|rig paa Ga- ver!|Liv og|
w: 2.Kjæ- re|Her- re,|Him- lens Man- na!|Ho- si- an- na!|Dig til Æ- re|glad i|
w: ||||||
w: ||||||
[M:3/2] G,4 G,4 E,2 D,2 | (E,2 D,2) !fermata!B,,8 |] %17
w: Lys ved dig jeg|ha- * ver.|
w: Aan- den vil jeg|væ- * re.|
w: ||
w: ||
V:4
!mf! G,4 | D,4 G,4 | E,4 B,,4 | C,2 E,2 G,4 | z2!<(! F,2 E,2 D,2!<)! |!f! ^C,4 D,4 | %6
w: 1.Af|Høj- he-|den op-|run- den er|en Mor- gen-|stjer- ne|
w: du|Ja- kobs-|stam- mens|fri- ske Skud,|du Da- vids|Søn, min|
w: 2.Du|lil- le|Barn, liv-|sa- lig skjøn,|Gud Fa- ders|og Ma-|
w: du|Lil- je|i mit|Hjer- te- rum,|dit Trø- stens|E- van-|
[M:3/2] G,2!>(! A,2 D,4!>)! z2!mf! G,2 |[M:6/4] C,4 G,,2 A,,4 B,,2 |[M:2/2] (C,2 D,2) G,4 :| %9
w: klar og skjær, af|Sand- hed og af|Naa- * de;|
w: Her- re prud, mig|fry- der o- ver-|maa- * de!|
w: ri- æ Søn, hil|dig høj- baar- ne|Kon- * ning;|
w: ge- li- um er|sødt som Melk og|Hon- * ning!|
!mf! D,4 G,4 | (F,2 D,2) G,4 | E,2 G,2 D,2 B,,2 | A,,2 E,2 C,2 B,,2 | A,,2 (B,,C,) D,2 G,2 | %14
w: 1.Lif- lig,|ven- * lig,|høj og præg- tig,|stor og mæg- tig,|rig paa _ Ga- ver!|
w: 2.Kjæ- re|Her- * re,|Him- lens Man- na!|Ho- si- an- na!|Dig til _ Æ- re|
w: |||||
w: |||||
!f! E,4 B,,4 |[M:3/2] C,4 G,,4 A,,2 B,,2 | (C,2 D,2) !fermata!G,,8 |] %17
w: Liv og|Lys ved dig jeg|ha- * ver.|
w: glad i|Aan- den vil jeg|væ- * re.|
w: |||
w: |||

